assets/illustrations/spots/folder-2.svg

<svg width="500" height="500" viewBox="0 0 500 500" fill="none" xmlns="http://www.w3.org/2000/svg">
<g opacity="0.1" filter="url(#filter0_f_10272_1667)">
<path d="M443.299 464.01C443.299 471.839 349.544 478.185 233.892 478.185C118.239 478.185 24.4844 471.839 24.4844 464.01C24.4844 456.181 118.239 449.835 233.892 449.835C349.544 449.835 443.299 456.181 443.299 464.01Z" fill="#0A0F1A"/>
</g>
<path d="M283.154 11.9016C157.592 -6.26942 41.0725 80.7886 22.9015 206.351C4.73044 331.914 91.7885 448.433 217.351 466.604C342.914 484.775 459.433 397.717 477.604 272.154C495.775 146.592 408.717 30.0726 283.154 11.9016Z" fill="#B2DFFD" fill-opacity="0.5"/>
<path d="M379.331 163.752H121.24C97.484 163.752 78.2256 183.011 78.2256 206.767V223.973C78.2256 228.724 82.0776 232.576 86.8289 232.576H160.471C164.14 232.593 167.406 234.903 168.644 238.357L178.021 266.73C181.639 277.143 191.43 284.142 202.453 284.194H413.743C418.494 284.194 422.346 280.342 422.346 275.591V206.767C422.346 183.011 403.087 163.752 379.331 163.752Z" fill="#0D4FC1"/>
<path d="M430.95 266.989H202.454C198.796 266.937 195.548 264.639 194.281 261.207L184.904 232.834C181.281 222.425 171.493 215.429 160.471 215.371H69.6236C55.3698 215.371 43.8146 226.926 43.8146 241.18C43.792 264.858 47.2173 288.413 53.9833 311.105L88.3956 425.559C93.847 443.798 110.637 456.283 129.673 456.255H372.622C390.616 456.307 406.74 445.152 413.039 428.295L450.204 329.154C454.534 317.521 456.754 305.209 456.759 292.798C456.759 278.544 445.204 266.989 430.95 266.989Z" fill="#0096FA"/>
<defs>
<filter id="filter0_f_10272_1667" x="8.48438" y="433.835" width="450.814" height="60.3506" filterUnits="userSpaceOnUse" color-interpolation-filters="sRGB">
<feFlood flood-opacity="0" result="BackgroundImageFix"/>
<feBlend mode="normal" in="SourceGraphic" in2="BackgroundImageFix" result="shape"/>
<feGaussianBlur stdDeviation="8" result="effect1_foregroundBlur_10272_1667"/>
</filter>
</defs>
</svg>

<svg width="500" height="500" viewBox="0 0 500 500" fill="none" xmlns="http://www.w3.org/2000/svg"><path d="M292.319 33.49c32.745-14.858 73.766-16.02 105.607.718 31.842 16.739 48.557 66.538 43.433 102.366-3.124 21.746-15.318 42.33-13.126 64.186 3.233 32.01 34.718 52.068 53.078 78.351 24.662 35.33 24.415 85.517 2.219 122.452-22.195 36.935-64.148 59.981-106.868 62.249-42.72 2.269-85.439-15.133-117.226-44.072-19.181-17.402-33.403-40.282-54.393-55.333-53.598-38.456-145.587 9.13-180.333-24.402-46.584-44.902-18.36-115.369 11.59-136.534 61.82-43.685 102.566 2.407 156.877-20.307 20.031-8.3 39.76-21.275 48.474-41.333 8.221-19.145 4.439-79.845 50.694-108.397" fill="#B9CBD3" style="mix-blend-mode:luminosity" opacity=".16"/><g opacity=".1" filter="url(#folder-2__a)"><path d="M443.299 464.01c0 7.829-93.755 14.175-209.407 14.175-115.653 0-209.408-6.346-209.408-14.175 0-7.829 93.755-14.175 209.408-14.175 115.652 0 209.407 6.346 209.407 14.175Z" fill="#0A0F1A"/></g><path d="M379.331 163.752H121.24c-23.756 0-43.014 19.259-43.014 43.015v17.206a8.603 8.603 0 0 0 8.603 8.603h73.642a8.725 8.725 0 0 1 8.173 5.781l9.377 28.373a25.995 25.995 0 0 0 24.432 17.464h211.29a8.603 8.603 0 0 0 8.603-8.603v-68.824c0-23.756-19.259-43.015-43.015-43.015Z" fill="#FFCD6B"/><path d="M430.95 266.989H202.454a8.846 8.846 0 0 1-8.173-5.782l-9.377-28.373a26.015 26.015 0 0 0-24.433-17.463H69.624c-14.254 0-25.81 11.555-25.81 25.809a243.902 243.902 0 0 0 10.17 69.925l34.412 114.454c5.451 18.239 22.241 30.724 41.277 30.696h242.949c17.994.052 34.118-11.103 40.417-27.96l37.165-99.141a104.344 104.344 0 0 0 6.555-36.356c0-14.254-11.555-25.809-25.809-25.809Z" fill="#FCDA97"/><defs><filter id="folder-2__a" x="8.484" y="433.835" width="450.814" height="60.351" filterUnits="userSpaceOnUse" color-interpolation-filters="sRGB"><feFlood flood-opacity="0" result="BackgroundImageFix"/><feBlend in="SourceGraphic" in2="BackgroundImageFix" result="shape"/><feGaussianBlur stdDeviation="8" result="effect1_foregroundBlur_10272_1667"/></filter></defs></svg>
